d1 $
  every 3 (slice 3 "1 2 [3 4] <[1 2] [2 3] [3 4]>") $
  stack
      [
        foldEvery [4,7] (slow 2).(spreadChoose ($) [bite 3 "1 2 <2 4>", bite 2 "2 4 1", off 0.125 ((# xsdelay (fast 4 $ range 0.05 0.75 sine)).(# tsdelay (fast 7 $ range 0.8 0.1 isaw)).(+| voice "<1 2 3 4>")), ((# squiz (fast 16 $ range 1 0.5 isaw)).(# pitchratio (fast 8 $ range "-0.5" 1 tri)))]) $
        sometimesBy 0.0875 (# zpulse (slow 4 $ range 0 1 saw)) $
        interlace (
        listen 1 $
        whenmod 18 10 (inside 2 (every 2 (slow 2)).(slow 2).(ply "<2 3 4>")) $
        fix ((* gain 0.75).(/| freq "<110 [55 165] 165 230?>"))(s "sostoms") $
        s "<soshats sostoms>(<7 10 5>,16,<10 25>)"
        # pitch1 ((fast 7 $ range 0.1 0.7 saw) * "[2 1] 3 1 2 1")
        # sus "1 0.6 0.8 0.3"
        # decay 1
        # rel 1
        # attack "<0 0.01>"
        # voice "<0 0.01 2 1>"
        # lpg (fast 4 $ range 0 1 tri)
        # lpga (slow 2 $ range 0.001 0.1 cosine)
        # lpgr "0.01 0.05 0.1"
        # lpgg 1.0
        # lpgres (slow 12 $ range 0.0 0.7 saw)
        )
        (
        every 2 (spread ($)[stripe 2, slow 2, (# s "~")]) $
        whenmod 17 12 (slow 2).(every 2 (spreadChoose ($) [density (1/2), density (2/3), slow "<2 3>"])).(spreadChoose ($) [bite 3 "<[3 2 1] 2 3> 1", chew 2 "<[2 3 4] 1> 2"]) $
        s "sossnare(<[5 7] [8 6]>,8,10)"
        # pitch1 (slow 4 $ range "-1" 0.6 saw)
        # semitone (slow 3 $ range "-0.5" 0.3 cosine)
        # voice ((fast 3 $ range "-1" 1 sine) * "<[0.75 1] 1.5 2 [2 3]>")
        )
        ,
        every 5 ((0.25 <~).(every 2 (zoom (0.75,1)).(iter 2))) $
        whenmod 12 8 (stutWith 4 (0.1666)((# cut 1).(# match (fast 3 $ range 0.2 0.4 cosine)). (# matchf "220 110 550 660").(# matchw (fast 4 $ range 0 1 saw)))) $
        whenmod 7 4 (# enc (slow 3 $ range 0 0.8 sine)) $
        foldEvery [7,13] ((splice 2 "4 3 2 1").(every 2 (gap "16 32 64"))) $
        slow 2 $
        s "~ henonSd(<6 5 3 7>,<4*<2 3> 8 16>)"
        # triode "0.13 0 0.1?"
        # freq "110 60 90 120"
        # digidest "0 0.1 0.2?"
        # amp "0.1 0.2 0.3 0.4"
        # a (fast 4 $ range 0.5 1.3 cosine )
        # b (slow 2 $ range 0.1 0.7 tri)
        # x0 (slow 6 $ range 0.30501993062401 0.7 saw)
        # x1 (slow 7 $ range 0.10938865431933 0.3 cosine )
        # atk 0.01
        # sst 1.0
        # rls 1.0
        # ts (slow 16 $ range 0.05 1.1 tri)
        ,
        slow 2 $
        -- every 3 (slice 4 "0 1 2 3 4") $
        s "tweetKickIntSd(<9 10 12.5>,16)"
        # amp 0.7
        # atk 0.01
        # rls 2.0
        # impfreq (slow 5 $ range 0.5 2.0 saw)
        # phRate (slow 8 $ range 64.0 100 cosine )
        # lagFreq (slow 10 $ range 0.1 2.0 isaw)
        # inAmt (slow 12 $ range 10 30.0 tri)
        # coef1 (slow 14 $ range 0.1 0.9 tri)
        # coef2 (slow 15 $ range 0.25 0.99 sine )
      ]
      # cps 0.85


  d1 $
    stack [
      weaveWith 3 (
        interlace(
          every 4 (ghost) $
          -- struct "t f t t f t f f*{1 2}%3" $
          foldEvery [3,7] (|* click (fast 3 $ range 0.5 0.25 isaw)) $
          s "technokickSd*[1 0 1 1 0 1 0 0]"
          # amp (slow 8 $ range 0.25 0.4 tri)
          # atk "0.01 0.05 0.02"
          # rls "1 0.2 0.6"
          # dcy (slow 4 $ range 0.21 0.34 tri)
          # click (segment 24 $ slow 5 $ range 0.0013 0.8 saw)
          # damp (segment 19 $ slow 7 $ range 0.31 0.4 tri)
        )
        (
          foldEvery [3,7] (inside 4 (ghost)) $
          whenmod 17 12 (* click (fast 1.5 $ range 0.25 1.15 saw)) $
          s "technokickSd(<9 12 10 6>,16,10)"
          # amp (slow 7 $ range 0.45 0.35 isaw)
          # atk "0.01 0.005"
          # rls "0.1 0.3 0.05 0.01 2.4"
          # dcy (slow 3 $ range 0.01 0.28571428571429 saw)
          # click (slow 3 $ range 0.008 0.1 tri)
          # damp (slow 12 $ range 0.23 0.6 saw)
        )
      )
      [
        -- (- freq "{60 [30 50] 60 50}%3")
        -- ,
        (# lpg (slow 3 $ range 0 0.7 tri)). (# lpga (slow 5 $ range 0.001 0.01 saw)). (# lpgr ((slow 7 $ range 0.01 0.7 saw) * (fast 2 $ sine))). (# lpgg (slow 4 $ range 0.4 1 tri))
        ,
        (# allpass (segment 8 $ slow 16 $ range "-0.15" 0.5 saw))
        ,
        (whenmod 15 13 (# chorus2 (segment 8 $ slow 5 $ range 0.1 0.4 tri)))
      ]
      ,
      weaveWith 16 (
        whenmod 15 11 (# enc (segment 24 $ slow 16 $ range 0.01 0.28 tri)) $
        whenmod 12 5 (* a (chooseBy "3 4 6 1"[0.2, 0.3, 0.4, 0.5])) $
        whenmod 15 9 (slowspread ($)[iter "<[0 1] 2>", (# zpulse (slow 3 $ range 0 0.6 tri))]) $
        -- whenmod 16 13 (# allpass (slow 7 $ range 8000 10150 saw )) $
        whenmod 12 7 (* freq ((slow 3 $ sine) * "0.32 0.61 0.5 0.93")) $
        slow 2 $ s "noise2Sd(<10 12 15>,32)"
        # note "10 12 3 4 8 10"
        # amp 0.4
        # atk ((slow 3 $ saw) * "0.01 0.1 [[0.06 0.2] 0.6 0.04]")
        # sustain ((slow 5 $ tri) / 1.5 + "0.1 0.05 0.3 [0.7 0.1]")
        # dcy "[0.1 0.2] 0.06 0.07"
        # rls (slow 7 $ range 0.1 0.9 saw)
        # a "-1 {2 0.6}%3 -4.0"
        -- # centerFreq ((slow 4 $ range 12000 7000 isaw) * (slow 2 $ cosine ))
        -- (* modamp ((slow 5 $ range 0.5 1.5 cosine) * (slow 4 $ saw))) $
        -- # modamp (slow 2 $ range 10 25 tri)
        -- # echohz1 (slow 7 $ range 10 55 tri)
        -- # rq ((slow 11 $ range 0 0.8 saw) * (slow 7 $ sine))
        # freq (slow 5 $ range 110 420 saw)
      )
      [
        ((# whammy (slow 8 $ range 0 0.7 saw)) . (# whammyshift "<-0.1 0.2 0.3 0.7 1 0.6 -0.9>"). (# whammyfreq (slow 8 $ range 2 24 tri)).(# whammydelay (fast 3 $ range 0.001 0.07 saw))),
        ((# lpg (slow 4 $ range 0 0.7 tri)).(# lpga (slow 3 $ range 0.001 0.004 saw)).(# lpgres (slow 10 $ range 0 1 tri))),
        layer [
        every 7 ((slow 2).(# enc (fast 3 $ range 0 0.3 tri))) ,
          every 9 (inside 2 (linger "<0.25 0.5>")),
          every 13 (inside 4 (splice 2 "1 2")),
          -- rot "<1 2>",
          (# amdist (slow 5 $ range 0.01 0.9 saw)).(# amdistf (slow 14 $ range 20 130 tri)),
          every 2 ((# fshift (fast 2 $ range 0 0.7 tri)).(# fshiftnote (fast 3 $ range "-0.51" 2.5 saw)).(# fshiftphase (fast 5 $ range "-0.7" 0.2 tri))),
          every 3 ((# sparkle (fast 3 $ range "-0.5" 0.7 tri)).(# sparklef (fast 7 $ range 0.01 0.3 saw))),
          every 4 (0.25 <~),
          -- (/ freq (slow 3 $ range 1.5 3 tri)),
          (+| atk (slow 2 $ range 0.01 0.002 isaw)) ,
          (whenmod 16 9 (spreadChoose ($) [chunk 4 (# djfilt (fast 3 $ range "-1" 1 saw)), inside 3 (# median (slow 3 $ range "-0.4" 0.2 tri)),(# s "~")]))
        ]
      ]
      ,
      slow 2 $
      foldEvery [4,9] (ghost) $
     weave 6
       (pitch1 (slow 4 $ range "-0.5" 2 square ))
       [
          every 4 (0.25 <~) $
          s "super808(<22 20 24 18>,32,<18 28>)"
          # voice (slow 2 $ range 0.1 0.8 isaw)
         ,
         foldEvery [5,11](0.25 ~>) $
          s "super808(<14 12 10>,16)"
          # n "[0 0.1] [0.05 0.25]"
       ]
     # voice (slow 3 $ range 0.1 0.2 tri)
     # pitch1 ((slow 3 $ range 0.2 1.5 cosine) * sine)
     ,
     whenmod 7 5 (slowspread ($)[(fast "1.5? 0.5 {2}%4").(# accelerate "-0.25"), density "3/2 1 2/3", (# s "~")]) $
     s "superhat(<14 12 15>,16,<22 12 28>)"
     # pitch1 (slow 3 $ range 0.2 0.71 saw)
     # sustain (slow 2 $ "0.01 {0.07}%3 {[0.02 0.05] 0.1?}%4")
     # n "0 1 0.5 0.1 0.9"
     # accelerate (slow 2 $ range "-0.25" 1 tri)
   ]
   # wall 0.7
   # walllev "0.1 -0.1"
   # cps 0.68

   d1 $  stack [
   ]

d1 $
  stack [
    interlace
    (
      s "kik3BrSd(<10 11 7>,16)"
      -- # atk 0.01
      # dcy "0.16 0.35"
      # decaylevel "0.8 0.71 0.6"
      # rls (segment 8 $ slow 3 $ range 0.2 0.6 tri)
      # envCurve ((segment 6 $ slow 7 $ range "-4.0" "-0.1" tri) * (slow 2 $ cosine))
      # sweeptime ((slow 8 $ range 0.01 0.12 isaw) * (segment 8 $ slow 3 $ cosine ))
      # sweepCurve (slow 3 $ range 1.8 2.1 tri)
      # preamp (slow 7 $ range 1.5 3.0 cosine )
    )
    (
      s "kik3BrSd(<6.75 7.5 5.5?>,8)"
      -- # atk "0.01 0.005"
      -- # dcy ((segment 4 $ range 0.1 0.6 tri) * (slow "[0.25 2]" $ saw))
      # decaylevel (segment 8 $ slow 6 $ range 0.6 0.9 saw)
      # rls (segment 4 $ slow 5 $ range 0.1 0.4 tri)
      # envCurve "<-4.0 -1 -0.5 [-0.2 -0.1 -0.3 -0.8]>"
      # sweeptime ((slow 7 $ range 0.04 0.12 tri) * (slow 3 $ cosine ))
      # sweepCurve (slow 8 $ range 0.5 2.5 saw)
      # preamp (slow 4 $ range 1.2 1.5 tri)
    )
    # amp 0.4
    -- # amp 1.0
    # atk 0.01
    # dcy "0.1 0.15"
    # decaylevel (segment 4 $ range 0.6 0.8 tri)
    # rls 0.3
    # envCurve "-4.0"
    # sweeptime 0.08
    # sweepCurve 2.0
    -- # preamp 3.0
    -- # decay ((slow 2 $ sine) * "[0.7 0.65] 0.83 0.7")
    -- # release ((segment 6 $ slow 8 $ cosine ) - "[0.25 0.3] 0.17")
    -- # sustain ((segment 4 $ slow 8 $ saw) - "0.2 0.13 0.24 0.2 -0.06")
    ,
    weave 4 (t1glide "<[0.06 0.2] [0.3 0.001] 0>")
      [
        foldEvery [3,7] ((0.25 <~).(# pfSt (segment 5 $ fast 4 $ range 550 860 cosine ))) $
        s "kick_electroSd(<10 12 14 7.5>,16,10)"
        # envbfL1 "<250 150 300 180>"
        # envbfL2 "<100 120 150 200 80>"
        # envbfL3 "<50 40 80>"
        # envbfRel (slow 4 $ range 0.003 0.1 tri)
        # envbfC "-4.0 -2 -1 -2.5 -4"
        # envbaL1 (segment 5 $ range 0 0.2 tri)
        # envbaL2 (segment 5 $ slow 2 $ range 0.1 1 cosine )
        # envbaL3 "0.1 0.15 0.2 0.6 0.1"
        # envbaL4 (segment 4 $ slow 6 $ range 0.1 0.8 tri)
        # envbaL5 "0.0 0.1 0.2 0.4 0.1"
        # envbaT1 (segment 6 $ slow 3 $ range 0.15 0.3 saw)
        # envbaT2 (segment 4 $ slow 16 $ range 0.1 0.3 saw)
        # envbaT3 ((segment 16 $ slow 32 $ range 0.01 0.3 saw) * ((slow 3 $ cosine) * 0.5))
        # envbaT4 (segment 5 $ slow 3 $ range 0.1 0.3 tri)
        # envbaC1 "-4.0 -3 -7 -5"
        # envbaC2 "-4.0 -2 -1 -5 -2"
        # envbaC3 "-4.0 -3 -5"
        # envbAmp 1.0
        # pfSt "750.0 250 375 125 375"
        # pfEnd "261 250 230"
        # pfDur 0.02
        # envpaL1 "0.0 0.05 0.1 0.2 0"
        # envpaL2 "0.4 0.3 0.1 0.03"
        # envpaL3 1.0
        # envpaL4 "0.02 0.03 0.05 0.016"
        # envpaL5 0.0
        # envpaT1 "0.1 0.05 0.6"
        # envpaT2 0.4
        # envpaT3 0.03
        # envpaT4 0.2
        # envpaC1 "-4.0"
        # envpaC2 "-4.0"
        # envpaC3 "-4.0"
        # envpAmp 1.0
        # envcaAtt 0.0
        # envcaRel 0.2
        # envcAmp 1.0
        # cFundFreq ("510.0 475 219 320" / 2)
        # cFormFreq ("4760 2746 2102 1500 1700" / "2 3")
        # cBwFreq ("2110 1125 1050" /"2 1.5 1.75")
        # lpfFreq 3140.0
        ,
        whenmod 16 12 (# envbfL3 ((segment 8 $ slow 7 $ range "<30 40 75>" "<51.0 60 30 65>" isaw) - ((slow 2 $ sine) / 2))) $
        s "kick_electroSd(<7.5 12 9 5>,16,<3 5.5>)"
        # envbfL1 (slow "3 2 5" $  range 10 "250 200 220" sine)
        # envbfL2 ((segment 16 $ slow 5 $ range 20 "<120 100 80>" cosine) * (slow 2 $ saw))
        # envfL3 "40 30 25 45 20"
        # envbfRel (segment 6 $ slow 4 $ range 0.003 0.19 sine)
        # envbfC "-4.0"
        # envbaL1 ((slow 8 $ range 0.04 0.1 tri) * (slow 2 $ sine))
        # envbaL2 ((segment 12 $ slow 5 $ range 0.2 0.9 saw))
        # envbaL3 ((segment 6 $ slow 3 $ range 0.005 0.15 isaw))
        # envbaL4 ((slow 9 $ range 0.5 0.8 tri) * (slow 3 $ range 0.75 0.95 cosine))
        # envbaL5 0.0
        # envbaT1 (segment 24 $ slow 12 $ range 0 0.2 tri)
        # envbaT2 (segment 10 $ slow 7 $ range 0 0.1 cosine)
        # envbaT3 "0.03 0.04 0 0.01 0.1"
        # envbaT4 "0.2 0.4 0.45 0.15 0.2 0.2"
        # envbaC1 "-4.0 -5 -1 -4.5 -2.7"
        # envbaC2 "-4.0 -1.5 -2"
        # envbaC3 "-4.0 -2"
        # envbAmp (segment 4 $ slow 12 $ range 0.1 0.5 saw)
        # pfSt (slow 2 $ range 500 750.0 saw)
        # pfEnd ("0.75 [0.65 -1]" * (segment 12 $ slow 8 $ range 120 250 cosine ) / (segment 6 $ slow 2 $ saw) * (segment 2 $ slow 3 $ sine))
        # pfDur 0.02
        # envpaL1 (segment 7 $ slow 3 $ range 0 0.06 saw)
        # envpaL2 ((segment 5 $ slow 3.5 $ range 0.25 0.6 saw) * (segment 5 $ cosine))
        # envpaL3 1.0
        # envpaL4 ((segment 5 $ slow 8 $ range 0 0.02 tri) * sine)
        # envpaL5 (segment 15 $ slow 12 $ range 0 0.7 isaw)
        # envpaT1 "0.1 0.05 0.2"
        # envpaT2 0.4
        # envpaT3 0.03
        # envpaT4 0.2
        # envpaC1 "-4.0"
        # envpaC2 "-4.0"
        # envpaC3 "-4.0"
        # envpAmp 1.0
        # envcaAtt 0.0
        # envcaRel 0.2
        # envcAmp 1.0
        # cFundFreq ("<596.475 910.0> [303.3333 455] <602.5 [210 350]>" / "<1 [1.25 [1.5 1]] [1 1.25]>" / 2)
        # cFormFreq ((segment 6 $ slow 12 $ range  9000 "<4760.0 3570 2677.5 2008.125>" isaw) * ((slow 3 $ cosine ) + 1) / 4)
        # cBwFreq ("2110.0 3165 4582.5" / "2 3")
        # lpfFreq ("<1000 2000 3000 2000>" * "1.5 1.75 2")
    ]
    -- # amp 0.3
    # atk 0.01
    # rls "0.3 0.1 0.25 0.15"
    ,
    s "kickBlocksSd(<14 12>,16,<3 0 5>)"
    # t1freq "400.0 200 300"
    # t1harmonic "2.0 3 4 1.5"
    # t1glide 0.01
    # t1atk 0.0005
    # t1rls 0.01
    # t1curve "-4.0 -2"
    # t1del 0.0
    # t1amp 1.0
    # t2freq "<50.0 60> <60 75 60>"
    # t2harmonic "1.75 2.4 3.44"
    # t2glide 0.01
    # t2atk 0.0001
    # t2rls 0.3
    # t2curve "-4.0"
    # t2del 0.005
    # t2amp 1.0
    # h1freq 200.0
    # h1harmonic "1.0 2 1.5 0.75"
    # h1glide 0.01
    # h1rq 0.6
    # h1atk 0.001
    # h1rls 0.02
    # h1curve "-4.0"
    # h1del 0.001
    # h1amp 0.3
    # h2freq 320.0
    # h2harmonic 2.0
    # h2glide 0.02
    # h2atk 0.003
    # h2rls 0.03
    # h2curve "-4.0"
    # h2del 0.01
    # h2amp 0.1
    # cfreq 100.0
    # crq 0.01
    # camp 0.11
    # amp 0.3
    # gain 0.1
      ]

d3 $ note "1 2 3 0.8 2 4 5 10" # s "pd" # ccn 7 # ccv (range 40 87 tri)

  let
    rlsT = pF "rlsT"
