d3 $
  stack [
    every 8 (# s "~") $
    whenmod 8 5 ((spin "<1 2 4>").(fast "<1.5 0.5 0.75>").(|> speed "<0.75 1.5 1.2 0.5>").(# cut "1 -2")) $
    every 4 (superimpose (rot "<1 2>").(chunk 4 (iter "<2 4 1>"))) $
    s "[ak:3(<3 5 7 2>,8,<0 2>) as:4(<1 2>,4,<1 2>),ah:7(<8 16 4 16 8 16>,16)]"
    # cut "-1"
    ,
    juxBy 0.2(slow 2) $
    every 3 (slow 2) $
    s "~ supernoise(<1 2 4>,8,<0 1 2 3>)"
    |+ note "<1 [-2 3] -6 8 -8>"
    # note (every 2 (slow 2) $ every 3 (+ "[1 -2] -4") $ "-1 2 -4 8 -6 -9 -7" + "[-1,2] -3 -5 -8 [-8 [-5,3]]")
    # sustain "0.9 0.5 1 0.5 0.7 0.1"
    # release "0.8 1.3 [0.5 0.7]"
    # attack "<0.2 0.05 0.1>"
    # voice (every 2 (|* 2) $ "<0.1 0.2 0.4 0.2 0.5> 1 2 5 0.4 0.7 0.8 1 2")
    # pitch1 "[0.5 2] 1 0.5 1.5"
    # pitch2 "[0.5 1 0.3 0.6 2] 0.5 1 1 0.5"
    # pitch3 "[1 2 0.6 0.7 0.5] 1 1 0.9"
    # slide "1 0.5 0.1 0.9 2 5"
    # speed "<0.5 1 2 0.1>"
    # lfo "[0.5 1 2 1.5 1] 1 0.2 0.5 0.36"
    # resonance (slow 16 $ range 0.1 0.7 cosine )
    # semitone "<8 .. 15> 0 0 <10 .. 14> 0"
    # accelerate "0 0 0 0 <0 0.25 0.5 1 -1>"
    ]
    # orbit 0
    # cps 0.7


setcps = 0.7


d3 $
  whenmod 8 5 (slow 2 . striate "<2 4 8>" . chunk 4 (hurry "<2 1 4 0.5>")) $
  s "ck:2({3 5 8 16 8 4 8}%3,8,<0 3>)"
  # cut "-1"
  # orbit 0

    hush
